fs/document_width_24_filled.svg

<svg viewBox="0 0 24 24" fill="none" xmlns="http://www.w3.org/2000/svg" height="1em" width="1em">
  <path d="M17.75 2C18.9409 2 19.9156 2.92516 19.9948 4.09595L20 4.25L19.9998 7.76711C19.4726 7.69125 18.9174 7.85612 18.5117 8.26174C18.0501 8.72335 17.8968 9.38484 18.0854 10.0035L18.1397 10.1571L18.182 10.249L16.6565 10.2492C15.8095 10.2491 15.1521 10.8983 15.023 11.7076L15.0058 11.852L15 11.9991C15 12.7979 15.5138 13.5122 16.3332 13.7087L16.4903 13.7394L16.6562 13.7492L18.171 13.749L18.1541 13.7826C17.9459 14.2511 17.9552 14.8006 18.2009 15.2948L18.2915 15.4573L18.3893 15.6005L18.5117 15.7383C18.9107 16.1372 19.459 16.3059 20 16.2226V19.75C20 20.9409 19.0748 21.9156 17.904 21.9948L17.75 22H6.25C5.05914 22 4.08436 21.0748 4.00519 19.904L4 19.75L3.99909 16.2216C4.54031 16.3053 5.08904 16.1367 5.48826 15.7374L5.61072 15.5997L5.70847 15.4565C6.04005 14.9229 6.07719 14.3024 5.84586 13.7818L5.829 13.748L7.34383 13.7484L7.50968 13.7385C8.42 13.6003 9 12.847 9 11.9983L8.99417 11.8512C8.92463 10.9761 8.24036 10.2482 7.34352 10.2484L5.818 10.248L5.86029 10.1563C6.12664 9.49566 5.98833 8.76099 5.48826 8.26092C5.08236 7.85502 4.52667 7.6902 3.99909 7.76645L4 4.25C4 3.05914 4.92516 2.08436 6.09595 2.00519L6.25 2H17.75ZM4.78115 8.96803C5.04742 9.23429 5.07162 9.65096 4.85377 9.94457L4.78115 10.0287L3.56 11.2484H7.34367C7.7061 11.2483 8 11.5841 8 11.9983C8 12.378 7.75319 12.6918 7.43288 12.7415L7.34383 12.7484H3.56L4.78115 13.9697C5.04742 14.2359 5.07162 14.6526 4.85377 14.9462L4.78115 15.0303C4.51488 15.2966 4.09822 15.3208 3.80461 15.1029L3.72049 15.0303L1.35072 12.6631C1.14219 12.5375 1 12.2874 1 11.9993C1 11.7113 1.14201 11.4611 1.35039 11.3355L3.72049 8.96803C4.01338 8.67513 4.48826 8.67513 4.78115 8.96803ZM19.2188 8.96511C19.4851 8.69884 19.9018 8.67464 20.1954 8.89249L20.2795 8.96511L22.6496 11.3325C22.858 11.4582 23 11.7083 23 11.9964C23 12.2485 22.8911 12.4715 22.7242 12.6074L22.6493 12.6602L20.2795 15.0274L20.1954 15.1C19.9344 15.2937 19.5762 15.2961 19.3128 15.1072L19.2188 15.0274L19.1462 14.9433C18.9526 14.6823 18.9502 14.3241 19.1391 14.0607L19.2188 13.9668L20.44 12.7454H16.6562L16.5671 12.7386C16.2468 12.6889 16 12.375 16 11.9953C16 11.6157 16.247 11.3019 16.5673 11.2523L16.6563 11.2454H20.44L19.2188 10.0258L19.1462 9.94165C18.9284 9.64804 18.9526 9.23138 19.2188 8.96511Z" fill="#212121"/>
</svg>

<svg viewBox="0 0 24 24" fill="none" xmlns="http://www.w3.org/2000/svg" height="1em" width="1em">
  <path d="M17.75 2a2.25 2.25 0 0 1 2.245 2.096L20 4.25v3.517a1.748 1.748 0 0 0-1.488.495 1.728 1.728 0 0 0-.427 1.742l.055.153.042.092h-1.525c-.848 0-1.505.65-1.634 1.459l-.017.144-.006.147c0 .799.514 1.513 1.333 1.71l.157.03.166.01h1.515l-.017.034a1.769 1.769 0 0 0 .047 1.512l.09.162.098.143.123.138a1.72 1.72 0 0 0 1.488.485v3.527a2.25 2.25 0 0 1-2.096 2.245L17.75 22H6.25a2.25 2.25 0 0 1-2.245-2.096L4 19.75v-3.528a1.718 1.718 0 0 0 1.488-.485l.123-.137.097-.143a1.785 1.785 0 0 0 .138-1.675l-.017-.034h1.515l.166-.01c.91-.138 1.49-.89 1.49-1.74l-.006-.147c-.07-.875-.754-1.603-1.65-1.603H5.818l.042-.092a1.735 1.735 0 0 0-.372-1.895A1.747 1.747 0 0 0 4 7.766V4.25a2.25 2.25 0 0 1 2.096-2.245L6.25 2h11.5ZM4.781 8.968a.75.75 0 0 1 .073.977l-.073.084-1.221 1.22h3.784c.362 0 .656.335.656.75 0 .379-.247.693-.567.742l-.09.007H3.56l1.221 1.222a.75.75 0 0 1 .073.976l-.073.084a.75.75 0 0 1-.976.073l-.085-.073-2.37-2.367A.77.77 0 0 1 1 12a.77.77 0 0 1 .35-.664l2.37-2.367a.75.75 0 0 1 1.061 0Zm14.438-.003a.75.75 0 0 1 .976-.073l.084.073 2.37 2.367a.77.77 0 0 1 .351.664.786.786 0 0 1-.276.611l-.075.053-2.37 2.367-.084.073a.75.75 0 0 1-.882.007l-.094-.08-.073-.084a.75.75 0 0 1-.007-.882l.08-.094 1.221-1.222h-3.784l-.089-.006c-.32-.05-.567-.364-.567-.744s.247-.693.567-.743l.09-.007h3.783l-1.221-1.22-.073-.083a.75.75 0 0 1 .073-.977Z" fill="#212121"/>
</svg>
